X: 1
T: String Quartet in G Major opus 64 no 4 mvt 4
C: Franz Joseph Haydn
%%abc-version 2.0
%%abcx-abcm2ps-target-version 5.9.1 (29 Sep 2008)
%%abc-creator hum2abc beta
%%abcx-conversion-date 2021/02/14 14:38:24
%%abc-copyright Copyright (c) 1994, 2000 Center for Computer Assisted Research in the Humanities
%%abc-edited-by Frances Bennion
%%abcx-initial-encoding-date 1997/04/15
%%gracespace 0 6 6
%%humdrum-veritas 2895651282
%%humdrum-veritas-data 3759308138
%%linebreak <none>
%%barnumbers 0
L: 1/8
M: 6/8
N: Derived from op64n4-04.krn
Q: "Finale: Presto"
%%staves [1 2 3 4]
V: 1
V: 2
V: 3 clef=alto
V: 4 clef=bass
K: G
[V:1]z4 zD [I:setbarnb1]|
[V:2]z4 zz |
[V:3]z4 zz |
[V:4]z4 zz |
[V:1]GFG A2d |
[V:2][DB,][DB,][DB,] [D3C3] |
[V:3]z3 F3 |
[V:4]G,,G,G, G,G,G, |
[V:1]GFG A2d |
[V:2][B,D][B,D][DB,] [D3C3] |
[V:3]Gz2 F3 |
[V:4]G,,G,G, G,G,G, |
[V:1]GFG c2e |
[V:2][B,D][B,D][DB,] [E2C2]G |
[V:3]Gz2 G3 |
[V:4]G,,G,G, E,2C, |
[V:1]dfg bz2 |
[V:2]G,2z4 |
[V:3]Bz4 z |
[V:4]B,,2z4 |
[V:1]de/f/g/a/ b2a |
[V:2]Bc/d/e/f/ g2f |
[V:3]z6 |
[V:4]z6 |
[V:1]gfe dcB |
[V:2]edc BAG |
[V:3]z6 |
[V:4]z6 |
[V:1]A2B dcB |
[V:2]F2G BAG |
[V:3]D,DD DDD |
[V:4]z6 |
[V:1]A2B AzD |
[V:2]F2G Fz2 |
[V:3]D,D^C D2z |
[V:4]z6 |
[V:1]GFG A2d |
[V:2][DB,][DB,][DB,] [C3D3] |
[V:3]z3 F3 |
[V:4]G,,G,G, G,G,G, |
[V:1]GFG A2d |
[V:2][B,D][DB,][DB,] [C3D3] |
[V:3]Gz2 F3 |
[V:4]G,,G,G, G,G,G, |
[V:1]GFG c2e |
[V:2][DB,][DB,][DB,] [E2C2]G |
[V:3]Gz2 G3 |
[V:4]G,,G,G, E,2C, |
[V:1]dfg bz2 |
[V:2]G,2z4 |
[V:3]Bz4 z |
[V:4]B,,2z4 |
[V:1]de/f/g//a//b//c'// d'2c' |
[V:2]Bc/d/e//f//g//a// b2a |
[V:3]z6 |
[V:4]z6 |
[V:1]bag fed |
[V:2]gfe dcB |
[V:3]z6 |
[V:4]z6 |
[V:1]c2B AcF |
[V:2]A2G E2C |
[V:3]D3 E2F |
[V:4]D,F,G, C,A,,D, |
[V:1]A2>G2 zB |
[V:2]C2>B,2 z2 |
[V:3]F2>G2 zD |
[V:4]G,,G,G, G,G,G, |
[V:1]d2c BAG |
[V:2]z6 |
[V:3]=F2E DCB, |
[V:4]G,,G,G, G,G,G, |
[V:1]FGA Gzd |
[V:2]z4 zB |
[V:3]A,B,C B,z2 |
[V:4]G,,G,G, G,G,G, |
[V:1]=f2e dcB |
[V:2]d2c BAG |
[V:3]z6 |
[V:4]G,,G,G, G,G,G, |
[V:1]ABc B2d |
[V:2]FGA G2D |
[V:3]z6 |
[V:4]G,,G,G, G,2z |
[V:1]g2f a2^g |
[V:2]G2F A2^G |
[V:3]zDC zED |
[V:4]zB,A, zCB, |
[V:1]b2a c'2b |
[V:2]B2A c2B |
[V:3]z=FE zG^F |
[V:4]zDC zED |
[V:1]aaa abg |
[V:2]AAA ABG |
[V:3]E6 |
[V:4]C3 ^C3 |
[V:1]fa^c' d'af |
[V:2]F6 |
[V:3]D6- |
[V:4]D2z4 |
[V:1]gfg eag |
[V:2]E6 |
[V:3]D3 ^C3 |
[V:4]z4 zA,, |
[V:1]fzd d^cg |
[V:2]FEF G2^C |
[V:3]DAA A2E |
[V:4]D,^C,D, E,2A, |
[V:1]fzd d^cg |
[V:2]DAA A2e |
[V:3]FEF G2^C |
[V:4]D,^C,D, E,2A, |
[V:1]f2a agf |
[V:2]f2f fed |
[V:3]DEF FGA |
[V:4]D^CD DEF |
[V:1]e^de f2b |
[V:2]B2z ^d3 |
[V:3]BBB B3 |
[V:4]GFG A3 |
[V:1]e^de f2b |
[V:2]ez2 ^d3 |
[V:3]BBB B3 |
[V:4]GFG A3 |
[V:1]e^de f2b |
[V:2]ez2 ^d3 |
[V:3]BBB B3 |
[V:4]GFG A3 |
[V:1]e^de g2f |
[V:2]ez2 ^c2d |
[V:3]BAB A3 |
[V:4]GFG E2D |
[V:1]e2>=f2 ef |
[V:2]ddd d^cd |
[V:3]B3 ^G3 |
[V:4]G3 ^G3 |
[V:1]eaa ^gbd' |
[V:2]^c2c Bd^G |
[V:3]A2z4 |
[V:4]A2z4 |
[V:1]^c'e'a ^gbd |
[V:2]A^cc Bd^G |
[V:3]E2z4 |
[V:4]A,2z4 |
[V:1]^ceA ^GBD |
[V:2]A2E D2B, |
[V:3]E2^C B,2^G, |
[V:4]A,2z3 ^G,, |
[V:1]A,^CE A^ce |
[V:2]A,^CE A^ce |
[V:3]A,^CE A^ce |
[V:4]A,,^C,E, A,^CE |
[V:1]a2z3 A |
[V:2]a2z4 |
[V:3]A2z4 |
[V:4]A2z4 |
[V:1]d2d d^cd |
[V:2]A,DF AGF |
[V:3]F,A,D FED |
[V:4]F,2z4 |
[V:1]dBB B2B |
[V:2]B,DG BGF |
[V:3]G,B,D GED |
[V:4]G,2z4 |
[V:1]A^cd efg |
[V:2]EBA GFE |
[V:3]^CGF EDC |
[V:4]A,,2z4 |
[V:1]g2>f2 zA |
[V:2]E2>F2 z2 |
[V:3]^C2>D2 z2 |
[V:4]B,,3 z3 |
[V:1]d2d d^cd |
[V:2]z6 |
[V:3]A,DF AGF |
[V:4]F,,A,,D, F,E,D, |
[V:1]dBB B2B |
[V:2]B,DG BGF |
[V:3]G,B,D GED |
[V:4]G,,B,,D, G,E,D, |
[V:1]A^cd efg |
[V:2]E3 A,3- |
[V:3]^CB,A, G,F,E, |
[V:4]^C,G,F, E,D,C, |
[V:1]fdA geA |
[V:2]A,DF A,EG |
[V:3]F,2z A,2z |
[V:4]D,2z ^C,2z |
[V:1]fdA geA |
[V:2]A,DF A,EG |
[V:3]A,2z A,2z |
[V:4]D,2z ^C,2z |
[V:1]fda aaa |
[V:2]F3 d3 |
[V:3]A,3 D3- |
[V:4]D,2z F,2z |
[V:1]a^g=g f=fe |
[V:2]B6 |
[V:3]D2z4 |
[V:4]G,6 |
[V:1]d6 |
[V:2]AAA AGF |
[V:3]FFF FED |
[V:4]A,2z4 |
[V:1]A4 BG |
[V:2]EGF EEE |
[V:3]^CED CCC |
[V:4]A,,2z4 |
[V:1]Fz2 e2^e |
[V:2]Fz2 ABG |
[V:3]D2z ^C3 |
[V:4]D,2z4 |
[V:1]fz2 g2^g |
[V:2]Fz2 e2^e |
[V:3]D2z4 |
[V:4]z2>A,,2 B,,G,, |
[V:1]ad'^c' =c'b^a |
[V:2]f2z4 |
[V:3]D2z4 |
[V:4]F,,2z4 |
[V:1]b6- |
[V:2]zba gfe |
[V:3]D6 |
[V:4]G,6 |
[V:1]bc'b agf |
[V:2]^d6 |
[V:3][A6B,6] |
[V:4]F,6 |
[V:1]zag zbg |
[V:2]zfe zge |
[V:3]G2z E2z |
[V:4]E,2z ^C,2z |
[V:1]zgf zaf |
[V:2]zed zfA |
[V:3]A,2z D2z |
[V:4]D,2z F,,2z |
[V:1]feb ba^c |
[V:2]B2G GFE |
[V:3]D2z ^CDE |
[V:4]G,,2z A,,2z |
[V:1]dAA AAA |
[V:2]D3 A,3 |
[V:3]F2z F,3 |
[V:4]D,,6- |
[V:1]AGG GBG |
[V:2]B,3 ^C3 |
[V:3]G,3 E,3 |
[V:4]D,,6- |
[V:1]FFF FFF |
[V:2]D3 A,3 |
[V:3]A,3 F,3 |
[V:4]D,,6- |
[V:1]FEE EA^C |
[V:2]B,3 ^C2E |
[V:3]G,6 |
[V:4]D,,6- |
[V:1]D2z EA^C |
[V:2]D2z ^C2E |
[V:3]F,2z G,3 |
[V:4]D,,2z A,,2z |
[V:1]D2z EA^C |
[V:2]D2z ^C2E |
[V:3]F,2z G,3 |
[V:4]D,,2z A,,2z |
[V:1]D2z3 d |
[V:2]D2z4 |
[V:3]F,2z4 |
[V:4]D,,2z4 |
[V:1]gfg a2d' |
[V:2]d3 f3 |
[V:3]_B3 c3 |
[V:4]GGG GGG |
[V:1]g2<z2 G,A, |
[V:2]g2<z2 G,A, |
[V:3]_B2z2 G,A, |
[V:4]G2<z2 G,,A,, |
[V:1]_B,CD _E=FG |
[V:2]_B,CD _E=FG |
[V:3]_B,CD _E=FG |
[V:4]_B,,C,D, _E,=F,G, |
[V:1]_A2z3 _B |
[V:2]_A2z4 |
[V:3]_A2z4 |
[V:4]_A,2z4 |
[V:1]_ede =f2_b |
[V:2]_B3 d3 |
[V:3]G3 _A3 |
[V:4]_EEE EEE |
[V:1]_e2<z2 c_B |
[V:2]_e2z2 c_B |
[V:3]G2z2 c_B |
[V:4]_E2<z2 C_B, |
[V:1]_AG=F _EDC |
[V:2]_AG=F _EDC |
[V:3]_AG=F _EDC |
[V:4]_A,G,=F, _E,D,C, |
[V:1]B,2z3 G |
[V:2]B,2z4 |
[V:3]B,2z4 |
[V:4]B,,2z4 |
[V:1]cBc d2g |
[V:2]G3 B3 |
[V:3]_E3 =F3 |
[V:4]CCC CCC |
[V:1]c2z3 C |
[V:2]c2z3 C |
[V:3]_E2z3 C |
[V:4]C3 z2C, |
[V:1]CB,B, B,_B,B, |
[V:2]CB,B, B,_B,B, |
[V:3]CB,B, B,_B,B, |
[V:4]C,B,,B,, B,,_B,,B,, |
[V:1]A,2z3 A |
[V:2]A,2z4 |
[V:3]A,2z4 |
[V:4]A,,2z4 |
[V:1]d^cd e2a |
[V:2]A3 ^c3 |
[V:3]=F3 G3 |
[V:4]DDD DDD |
[V:1]d2z3 D |
[V:2]d2z3 D |
[V:3]=F2z3 D |
[V:4]D2z3 D, |
[V:1]D^CC C=CC |
[V:2]D^CC C=CC |
[V:3]D^CC C=CC |
[V:4]D,^C,C, C,=C,C, |
[V:1]B,2z4 |
[V:2]B,2z3 B |
[V:3]B,2z4 |
[V:4]B,,2z4 |
[V:1]z6 |
[V:2]e^de f2b |
[V:3]z3 B2F |
[V:4]z2E E^D=D |
[V:1]z6 |
[V:2]e2a d2g |
[V:3]^GAE F=GD |
[V:4]D^C=C CB,B, |
[V:1]z6 |
[V:2]gff fee |
[V:3]C3 B,3 |
[V:4]A,3 G,3 |
[V:1]z6 |
[V:2]e^de fdA |
[V:3]A,2G, F,2F |
[V:4]F,2E, ^D,3 |
[V:1]z6 |
[V:2]^GBA cBd |
[V:3]E^GF AGB |
[V:4]E,6- |
[V:1]z4 ze |
[V:2]ced =fed |
[V:3]AcB dcB |
[V:4]E,6 |
[V:1]a^ga b2e' |
[V:2]cee e3 |
[V:3]A2A A^G=G |
[V:4]A,,2z4 |
[V:1]a2d' g2c' |
[V:2]e^d=d d^c=c |
[V:3]F2B E2A |
[V:4]z6 |
[V:1]f6- |
[V:2]cAB cBA |
[V:3]^D6 |
[V:4]z4 zB,, |
[V:1]f2e2 ^df- |
[V:2]G3 A3- |
[V:3]E2z4 |
[V:4]E,^D,E, F,2B, |
[V:1]feg2 fa- |
[V:2]AGB2 Ac- |
[V:3]z4 zF |
[V:4]E,3 D,3 |
[V:1]agb2 ^a^c'- |
[V:2]cBd2 ^ce- |
[V:3]DD2 <z2F, |
[V:4]G,3 F,3 |
[V:1]c'bd'2 ^c'e'- |
[V:2]edf2 eg- |
[V:3]FF2 <z2A |
[V:4]B,,3 A,,3 |
[V:1]e'd'c'2 bd'- |
[V:2]gfa2 gd |
[V:3]A,A,D DDG, |
[V:4]D,3 G,2B,, |
[V:1]d'c'b2 ag |
[V:2]e6 |
[V:3]G,2z4 |
[V:4]C,3 ^C,3 |
[V:1]f2d ^c3 |
[V:2]d2A _BAG |
[V:3]z2F GFG |
[V:4]D,6- |
[V:1]d3 ^c3 |
[V:2]F2A _BAG |
[V:3]A2d GFG |
[V:4]D,6- |
[V:1]d3 ^c3 |
[V:2]F2A _BAG |
[V:3]A2d GFG |
[V:4]D,6- |
[V:1]d^GA z^AB |
[V:2]F^EF zFG |
[V:3]F2z D2z |
[V:4]D,2z4 |
[V:1]zBc z^cd |
[V:2]z^GA z^AB |
[V:3]D2z D2z |
[V:4]z6 |
[V:1]z^de zde |
[V:2]zBc zBc |
[V:3]D2z D2z |
[V:4]z6 |
[V:1]z3 e2z |
[V:2]z3 c2z |
[V:3]D2z4 |
[V:4]z6 |
[V:1]z3 e2z |
[V:2]z3 c2z |
[V:3]D2z4 |
[V:4]z6 |
[V:1]z4 zD |
[V:2]z6 |
[V:3]z6 |
[V:4]z6 |
[V:1]GFG A2d |
[V:2][DB,][DB,][B,D] [D3C3] |
[V:3]z3 F3 |
[V:4]G,,G,G, G,G,G, |
[V:1]GFG A2d |
[V:2][DB,][DB,][B,D] [D3C3] |
[V:3]Gz2 F3 |
[V:4]G,,G,G, G,G,G, |
[V:1]GFG c2e |
[V:2][DB,][DB,][DB,] [E2C2]G |
[V:3]Gz2 G3 |
[V:4]G,,G,G, E,2C, |
[V:1]dfg bz2 |
[V:2]G,2z4 |
[V:3]Bz4 z |
[V:4]B,,2z4 |
[V:1]de/f/g/a/ b2a |
[V:2]Bc/d/e/f/ g2f |
[V:3]z6 |
[V:4]z6 |
[V:1]gfe dcB |
[V:2]edc BAG |
[V:3]z6 |
[V:4]z6 |
[V:1]A2B dcB |
[V:2]F2G BAG |
[V:3]D,DD DDD |
[V:4]z6 |
[V:1]A2B Az2 |
[V:2]F2G Fz2 |
[V:3]D,D^C D2z |
[V:4]z4 zD, |
[V:1]z2G GFc |
[V:2]B,A,B, C2A, |
[V:3]zDD D2F, |
[V:4]G,F,G, A,2D |
[V:1]BzG GFc |
[V:2]B,A,B, C2A, |
[V:3]G,DD D2F, |
[V:4]G,F,G, A,2D |
[V:1]B2d dcB |
[V:2]B,2B BAG |
[V:3]G,A,B, B,CD |
[V:4]G,F,G, G,A,B, |
[V:1]A^GA B2e |
[V:2]E2z ^G3 |
[V:3]EEE E3 |
[V:4]CB,C D3 |
[V:1]A^GA B2e |
[V:2]Az2 ^G3 |
[V:3]EEE E3 |
[V:4]CB,C D3 |
[V:1]A^GA B2e |
[V:2]Az2 ^G3 |
[V:3]EEE E3 |
[V:4]CB,C D3 |
[V:1]A^GA c2B |
[V:2]A2z F2G |
[V:3]EEE D3 |
[V:4]CB,C A,2G, |
[V:1]A2>_B2 AB |
[V:2]GGG GFG |
[V:3]E3 ^C3 |
[V:4]C3 ^C3 |
[V:1]Add ^ceg |
[V:2]F2F EG^C |
[V:3]D2z3 ^C, |
[V:4]D2z3 ^C,, |
[V:1]fFA dfa |
[V:2]DFA dfa |
[V:3]D,F,A, DFA |
[V:4]D,,F,,A,, D,F,A, |
[V:1]d'2z3 d |
[V:2]d'2z4 |
[V:3]d2z4 |
[V:4]D2z4 |
[V:1]g2g gfg |
[V:2]DGB dcB |
[V:3]B,DG BAG |
[V:4]B,,2z4 |
[V:1]gee e2e |
[V:2]EGc ecB |
[V:3]CEG cAG |
[V:4]C,2z4 |
[V:1]dfg abc' |
[V:2]Aed cBA |
[V:3]FcB AGF |
[V:4]D,2z4 |
[V:1]c'2>b2 zd |
[V:2]A2>B2 z2 |
[V:3]F2>G2 z2 |
[V:4]E,3 z3 |
[V:1]g2g gfg |
[V:2]z6 |
[V:3]DGB dcB |
[V:4]B,,D,G, B,A,G, |
[V:1]gee e2e |
[V:2]EGc ecB |
[V:3]CEG cAG |
[V:4]C,E,G, CA,G, |
[V:1]dfg abc' |
[V:2]A3 D3- |
[V:3]FED CB,A, |
[V:4]F,CB, A,G,F, |
[V:1]bgd c'ad |
[V:2]DGB DAc |
[V:3]B,2z D2z |
[V:4]G,2z F,2z |
[V:1]bgd c'ad |
[V:2]DGB DAc |
[V:3]D2z D2z |
[V:4]G,2z F,2z |
[V:1]bdd' d'd'd' |
[V:2]B3 g3 |
[V:3]D2>G,2 GG |
[V:4]G,2z B,,3 |
[V:1]d'^c'=c' b_ba |
[V:2]e6 |
[V:3]G2z4 |
[V:4]C,6 |
[V:1]g6 |
[V:2]ddd dcB |
[V:3]BBB BAG |
[V:4]D,2z4 |
[V:1]d4 ec |
[V:2]AcB AAA |
[V:3]FAG FFF |
[V:4]D,2z4 |
[V:1]B2z a2^a |
[V:2]G2z dec |
[V:3]G2z F3 |
[V:4]G,2z4 |
[V:1]b2z f3 |
[V:2]B2z BcA |
[V:3]G2z ^D3 |
[V:4]z6 |
[V:1]gz2 d2^d |
[V:2]G2z GA=F |
[V:3]E2z B,3 |
[V:4]z6 |
[V:1]ez2 B3 |
[V:2]Ez2 ^G3 |
[V:3]Cz2 E=FD |
[V:4]z6 |
[V:1]cz2 A3 |
[V:2]Az2 F3 |
[V:3]Cz4 z |
[V:4]z2>D,2 E,C, |
[V:1]Bgf =fe^d |
[V:2]G6 |
[V:3]D3 G3 |
[V:4]B,,6 |
[V:1]z^de za^g |
[V:2]z^DE zA^G |
[V:3]E2z E2z |
[V:4]C,2z C,2z |
[V:1]zba zc'b |
[V:2]zBA zcB |
[V:3]E2z E2z |
[V:4]C,2z C,2z |
[V:1]zba zag |
[V:2]zBA zAG |
[V:3]E2z E2z |
[V:4]C,2z ^C,2z |
[V:1]f2z4 |
[V:2]d^cd e2a |
[V:3]D2d d^c=c |
[V:4]D,6- |
[V:1]z4 zd |
[V:2]d2g c2d |
[V:3]cBB BAF |
[V:4]D,6- |
[V:1]gfg a2d' |
[V:2]B2g gf=f |
[V:3]G2z3 B |
[V:4]D,6- |
[V:1]g2c' f2b |
[V:2]=fee e^d=d |
[V:3]c2A B2^G |
[V:4]D,6- |
[V:1]e2a d2g |
[V:2]d^c=c cBd |
[V:3]A2F G2B |
[V:4]D,6- |
[V:1]gfe edc |
[V:2]c2B A3 |
[V:3]A2G F3 |
[V:4]D,2z3 D,, |
[V:1]B2z4 |
[V:2]B2B cBc |
[V:3]G2G GFF |
[V:4]G,,F,,G,, A,,2D, |
[V:1]z6 |
[V:2]B2e A2d |
[V:3]FEE EDD |
[V:4]G,,2C, F,,2B,, |
[V:1]z4 zB, |
[V:2]G2c F2B |
[V:3]DCC CB,B, |
[V:4]E,,2A,, D,,2G,, |
[V:1]A,CE Ace |
[V:2]EEE EEE |
[V:3]CA,A, A,A,A, |
[V:4]C,,C,,C,, C,,C,,C,, |
[V:1]^CEG _B^ce |
[V:2][G_B,][B,G][GB,] [GB,][B,G][GB,] |
[V:3]EEE EEE |
[V:4]^C,,C,,C,, C,,C,,C,, |
[V:1]DGB dgb |
[V:2][GB,][GB,][GB,] [GB,][B,G][GB,] |
[V:3]DDD DDD |
[V:4]D,,D,,D,, D,,D,,D,, |
[V:1]d'2z f2z |
[V:2][A,2F2]z [A,2F2]z |
[V:3]D2z C2z |
[V:4]D,,2z D,,2z |
[V:1]gdd ddd |
[V:2]G,3 D3 |
[V:3]B,3 B,3 |
[V:4]G,,6- |
[V:1]dcc cec |
[V:2]E3 F3 |
[V:3]C3 A,3 |
[V:4]G,,6- |
[V:1]BBB BBB |
[V:2]G3 D3 |
[V:3]D3 B,3 |
[V:4]G,,6- |
[V:1]BAA AdF |
[V:2]E3 F2A |
[V:3]C6 |
[V:4]G,,6- |
[V:1]G2z Ac^A |
[V:2]G2z FAF |
[V:3]B,2z4 |
[V:4]G,,2z4 |
[V:1]B2z ce^c |
[V:2]Gz2 Ac^A |
[V:3]z6 |
[V:4]z6 |
[V:1]dz4 z |
[V:2]Bz4 z |
[V:3]z2>A,2 C^A, |
[V:4]z2>F,2 A,F, |
[V:1]z6 |
[V:2]z6 |
[V:3]B,z2 CE^C |
[V:4]G,z2 A,C^A, |
[V:1]z4 zd |
[V:2]z6 |
[V:3]D2z4 |
[V:4]B,2z4 |
[V:1]gfg a2d' |
[V:2][DB][DB][BD] [D3c3] |
[V:3]z3 F3 |
[V:4]G,,G,G, G,G,G, |
[V:1]gfg a2d' |
[V:2][BD][BD][DB] [c3D3] |
[V:3]G2z F3 |
[V:4]G,,G,G, G,G,G, |
[V:1]bg'g' g'g'g' |
[V:2][B2D2]z4 |
[V:3]G2z4 |
[V:4]G,2z4 |
[V:1]g'd'b' b'b'b' |
[V:2][B2D2]z4 |
[V:3]G2z4 |
[V:4]G,2z4 |
[V:1]b'g'd'' d''d''d'' |
[V:2][B2D2]z4 |
[V:3]G2z4 |
[V:4]G,2z4 |
[V:1]d''2z3 B, |
[V:2][B2D2]z3 B, |
[V:3]G2z3 B, |
[V:4]G,2z3 B,, |
[V:1]CB,C A,2D |
[V:2]CB,C A,2D |
[V:3]CB,C A,2D |
[V:4]C,B,,C, A,,2D, |
[V:1]G,z2 AdF |
[V:2]G,z2 C3 |
[V:3]G,z2 F,2A, |
[V:4]G,,z2 D,,2z |
[V:1]Gz2 AdF |
[V:2]B,2z C3 |
[V:3]G,2z F,2A, |
[V:4]G,,2z D,,2z |
[V:1]G2z4 |]
[V:2]B,2z4 |]
[V:3]G,2z4 |]
[V:4]G,,2z4 |]

